app/dist/common/images/chn-energy-changyu.svg

<svg height="18" viewBox="0 0 18 18" width="18" xmlns="http://www.w3.org/2000/svg" xmlns:xlink="http://www.w3.org/1999/xlink"><linearGradient id="a" gradientUnits="userSpaceOnUse" x1="8.99" x2="8.99" y1="7.37" y2="12.5"><stop offset=".08" stop-color="#f4a202"/><stop offset="1" stop-color="#bf1920" stop-opacity="0"/></linearGradient><path d="m0 0h18v18h-18z" fill="#f0f3fa"/><path d="m7.45 4-4.45 5 4.43 5 1.54-1.74 1.58 1.74 4.45-5-1.28-1.43-3.17 3.56-.3-.33 3.18-3.57-1.28-1.43-3.15 3.53-.3-.33 3.15-3.57-1.28-1.43-4.45 5.03 1.58 1.77-.27.3-1.88-2.1 3.18-3.57z" fill="#bf1920"/><path d="m6.78 7.62c-1.28.3-2.49.85-3.57 1.62l4.22 4.73 1.54-1.74 1.58 1.77 4.22-4.74c-.53-.38-1.09-.71-1.68-.98l-2.54 2.85-.3-.33 2.41-2.71a9.8 9.8 0 0 0 -2.03-.58l-1.63 1.82-.3-.33 1.42-1.6a9.75 9.75 0 0 0 -2.6.05l-1.4 1.58 1.58 1.77-.27.3-1.88-2.1z" fill="url(#a)"/></svg>

<!-- by TradingView --><svg width="18" height="18" viewBox="0 0 18 18" xmlns="http://www.w3.org/2000/svg"><path fill="#F0F3FA" d="M0 0h18v18H0z"/><path d="M7.45 4 3 9l4.43 5 1.54-1.74L10.55 14 15 9l-1.28-1.43-3.17 3.56-.3-.33 3.18-3.57-1.28-1.43L9 9.33 8.7 9l3.15-3.57L10.57 4 6.12 9.03 7.7 10.8l-.27.3L5.55 9l3.18-3.57L7.45 4Z" fill="#BF1920"/><path d="M6.78 7.62c-1.28.3-2.49.85-3.57 1.62l4.22 4.73 1.54-1.74L10.55 14l4.22-4.74c-.53-.38-1.09-.71-1.68-.98l-2.54 2.85-.3-.33 2.41-2.71a9.8 9.8 0 0 0-2.03-.58L9 9.33 8.7 9l1.42-1.6a9.75 9.75 0 0 0-2.6.05l-1.4 1.58L7.7 10.8l-.27.3L5.55 9l1.23-1.38Z" fill="url(#abrkg3jbo)"/><defs><linearGradient id="abrkg3jbo" x1="8.99" y1="7.37" x2="8.99" y2="12.5" gradientUnits="userSpaceOnUse"><stop offset=".08" stop-color="#F4A202"/><stop offset="1" stop-color="#BF1920" stop-opacity="0"/></linearGradient></defs></svg>
